X:1
T:Title
%%score { ( 1 3 ) | ( 2 4 ) }
L:1/8
Q:1/4=100
M:4/4
K:G
V:1 treble nm="Grand Piano"
V:3 treble 
V:2 treble 
V:4 treble 
V:1
 d>e d>e d>c B>A | G2 B2 [FA]2 [Fd]2 | [Gd]>[Gd] [Ge]>[Ge] [Gd]>[DGB] [CG][CGc] | %3
w: Susie~E.~Hatfield * * * * * * *|||
 [DGB]<[DGB] [CFA]>[CFA] G4 | d>e d>e d>c B>A | G2 B2 [FA]2 [Fd]2 | %6
w: |||
 [Gd]>[Gd] [Ge]>[Ge] [Gd]>[DGB] [CG][CGc] | [DGB]<[DGB] [CFA]>[CFA] [B,G]4 | %8
w: ||
 [Fd]>[Fc] [CFA]>[B,=F^G] [C^FA]2[K:bass] [F,D]2 | z4[K:treble] [DB]4 | %10
w: ||
 [Fd]>[Fc] [FA]>[=F^G] [^FA]2 [Fc]2 | z4 d4 | [^Ge]>[Ge] [Ge]>[Gd] [Gc]2 [GB]2 | %13
w: |||
 [EA]>[EA] [^GB]>[GB] [Ec]4 | [G^c]>[Gc] [Gc]>[Gc] [Gd]>[Ge] [Gd]>[EG=c] | %15
w: ||
 [DGB]<[DGB] [CFA]>[CFA] [B,G]4 |] %16
w: |
V:2
 [G,B,G]>[G,CG] [G,B,G]>[G,CG] [G,B,G]>[G,EG] [G,DG]>[G,CD] | %1
 [G,B,D]2 [G,DG]2[K:bass] [D,D]2 [D,C]2 | [G,B,]>[G,B,] [C,C]>[C,C] [G,B,]>=F, E,^D, | %3
 D,<D, D,>D, [G,B,]4 | [G,B,G]>[G,CG] [G,B,G]>[G,CG] [G,B,G]>[G,EG] [G,DG]>[G,CD] | %5
 [G,B,D]2 [G,DG]2[K:bass] [D,D]2 [D,C]2 | [G,B,]>[G,B,] [C,C]>[C,C] [G,B,]>=F, E,^D, | %7
 D,<D, D,>D, G,4 | [D,A,]>[D,A,] D,>D, D,2 D,2 | [G,,G,]2 [G,,G,]2 [G,,G,]>G,, G,,2 | %10
 [D,A,]>[D,A,] [D,C]>[D,B,] [D,C]2 [D,A,]2 | z4 G4[K:bass] | %12
 [E,B,]>[E,B,] [E,B,]>[E,B,] [E,E]2 [E,D]2 | [A,C]>[A,C] [E,D]>[E,D] [A,C]4 | %14
 [E,_B,]>[E,B,] [E,B,]>[E,B,] [D,=B,]>[D,C] [D,B,]>D, | D,<D, D,>D, G,4 |] %16
V:3
 x8 | x8 | x8 | x8 | x8 | x8 | x8 | x8 | x6[K:bass] x2 | %9
 [CE]>[B,D] [_B,^C]>[=B,D][K:treble] z z/ G,/ G,2 | x8 | e>d d>^c z z/ B,/ B,2 | x8 | x8 | x8 | %15
 x8 |] %16
V:4
 x8 | x4[K:bass] x4 | x8 | x8 | x8 | x4[K:bass] x4 | x8 | x8 | x8 | x8 | x8 | %11
 [G,CG]>[G,B,G] [G,B,G]>[G,_B,G] [G,=B,]>[K:bass]G, G,2 | x8 | x8 | x8 | x8 |] %16

